resources/images/param_adaptive_mesh.svg

<svg width="18" height="18" viewBox="0 0 18 18" fill="none" xmlns="http://www.w3.org/2000/svg">
<path d="M11.5 8.5H13.5M12.5 9.5V7.5M11.5 12.5H13.5M12.5 13.5V11.5M7.5 12.5H9.5M8.5 13.5V11.5M7.5 8.5H9.5M8.5 9.5V7.5" stroke="#FF7C3F" stroke-linecap="square" stroke-linejoin="round"/>
<path d="M11.5 4.5H13.5M12.5 5.5V3.5M3.5 12.5H5.5M4.5 13.5V11.5M3.5 8.5H5.5M4.5 9.5V7.5M7.5 4.5H9.5M8.5 5.5V3.5M3.5 4.5H5.5M4.5 5.5V3.5M16.5 15.5V1.5C16.5 1.23478 16.3946 0.98043 16.2071 0.792893C16.0196 0.605357 15.7652 0.5 15.5 0.5H1.5C1.23478 0.5 0.98043 0.605357 0.792893 0.792893C0.605357 0.98043 0.5 1.23478 0.5 1.5V15.5C0.5 15.7652 0.605357 16.0196 0.792893 16.2071C0.98043 16.3946 1.23478 16.5 1.5 16.5H15.5C15.7652 16.5 16.0196 16.3946 16.2071 16.2071C16.3946 16.0196 16.5 15.7652 16.5 15.5Z" stroke="#949494" stroke-linecap="square" stroke-linejoin="round"/>
</svg>

<svg xmlns="http://www.w3.org/2000/svg" width="18" height="18" viewBox="0 0 18 18"><path d="M11.5,8.5h2m-1,1v-2m-1,5h2m-1,1v-2m-5,1h2m-1,1v-2m-1-3h2m-1,1v-2" style="fill:none;stroke:#009688;stroke-linecap:square;stroke-linejoin:round"/><path d="M11.5,4.5h2m-1,1v-2m-9,9h2m-1,1v-2m-1-3h2m-1,1v-2m3-3h2m-1,1v-2m-5,1h2m-1,1v-2m12,12V1.5a1,1,0,0,0-1-1H1.5a1,1,0,0,0-1,1v14a1,1,0,0,0,1,1h14A1,1,0,0,0,16.5,15.5Z" style="fill:none;stroke:#949494;stroke-linecap:square;stroke-linejoin:round"/></svg>
